client/src/client/images/add-column-left.svg

<svg xmlns="http://www.w3.org/2000/svg" width="16" height="16"><defs><mask maskUnits="userSpaceOnUse" id="b"><path d="M-1-1h18v18H-1z" fill="#fff"/><circle cx="5.5" cy="8" r="4" stroke-width="0" paint-order="stroke markers fill"/></mask><mask maskUnits="userSpaceOnUse" id="c"><path d="M-1-1h8v18h-8z" fill="#fff"/><circle cx="5.5" cy="8" r="4" stroke-width="0" paint-order="stroke markers fill"/></mask><linearGradient id="a"><stop offset="0" stop-color="#51b5e3" stop-opacity=".247"/><stop offset="1" stop-color="#51b5e3"/></linearGradient></defs><path style="line-height:normal;font-variant-ligatures:normal;font-variant-position:normal;font-variant-caps:normal;font-variant-numeric:normal;font-variant-alternates:normal;font-variant-east-asian:normal;font-feature-settings:normal;font-variation-settings:normal;text-indent:0;text-align:start;text-decoration-line:none;text-decoration-style:solid;text-decoration-color:#000;text-transform:none;text-orientation:mixed;white-space:normal;shape-padding:0;shape-margin:0;inline-size:0;isolation:auto;mix-blend-mode:normal;solid-color:#000;solid-opacity:1" d="M0 0v16h16V0zm1 1h4v4H1zm5 0h4v4H6zm5 0h4v4h-4zM1 6h4v4H1zm5 0h4v4H6zm5 0h4v4h-4zM1 11h4v4H1zm5 0h4v4H6zm5 0h4v4h-4z" mask="url(#b)" color="#000" font-weight="400" font-family="sans-serif" overflow="visible" fill="#aabcc8" fill-opacity=".497" paint-order="stroke fill markers"/><path style="line-height:normal;font-variant-ligatures:normal;font-variant-position:normal;font-variant-caps:normal;font-variant-numeric:normal;font-variant-alternates:normal;font-variant-east-asian:normal;font-feature-settings:normal;font-variation-settings:normal;text-indent:0;text-align:start;text-decoration-line:none;text-decoration-style:solid;text-decoration-color:#000;text-transform:none;text-orientation:mixed;white-space:normal;shape-padding:0;shape-margin:0;inline-size:0;isolation:auto;mix-blend-mode:normal;solid-color:#000;solid-opacity:1" d="M0 0v16h16V0zm1 1h14v14H1z" color="#000" font-weight="400" font-family="sans-serif" overflow="visible" fill="#aabcc8" paint-order="stroke fill markers"/><path mask="url(#c)" d="M1.033 1.033h3.934v13.934H1.033z" fill="#b2ffcd" stroke="#51e384" stroke-width="2.065" paint-order="stroke fill markers"/><path d="M4.75 5.5v1.75H3v1.5h1.75v1.75h1.5V8.75H8v-1.5H6.25V5.5z" fill="#00be42" paint-order="stroke markers fill"/></svg>

<?xml version="1.0" encoding="UTF-8"?>
<svg version="1.1" viewBox="0 0 16 16" xmlns="http://www.w3.org/2000/svg" xmlns:cc="http://creativecommons.org/ns#" xmlns:dc="http://purl.org/dc/elements/1.1/" xmlns:rdf="http://www.w3.org/1999/02/22-rdf-syntax-ns#" xmlns:xlink="http://www.w3.org/1999/xlink">
<defs>
<mask id="b" maskUnits="userSpaceOnUse">
<path d="m-1-1h18v18h-18z" fill="#fff"/>
<circle cx="5.5" cy="8" r="4" d="m 9.5,8 a 4,4 0 0 1 -4,4 4,4 0 0 1 -4,-4 4,4 0 0 1 4,-4 4,4 0 0 1 4,4 z" style="paint-order:stroke markers fill"/>
</mask>
<mask id="a" maskUnits="userSpaceOnUse">
<path d="m-1-1h8v18h-8z" fill="#fff"/>
<circle cx="5.5" cy="8" r="4" d="m 9.5,8 a 4,4 0 0 1 -4,4 4,4 0 0 1 -4,-4 4,4 0 0 1 4,-4 4,4 0 0 1 4,4 z" style="paint-order:stroke markers fill"/>
</mask>
</defs>
<metadata>
<rdf:RDF>
<cc:Work rdf:about="">
<dc:format>image/svg+xml</dc:format>
<dc:type rdf:resource="http://purl.org/dc/dcmitype/StillImage"/>
<dc:title/>
</cc:Work>
</rdf:RDF>
</metadata>
<g>
<path d="m0 0v16h16v-16zm1 1h4v4h-4zm5 0h4v4h-4zm5 0h4v4h-4zm-10 5h4v4h-4zm5 0h4v4h-4zm5 0h4v4h-4zm-10 5h4v4h-4zm5 0h4v4h-4zm5 0h4v4h-4z" color="#000000" color-rendering="auto" dominant-baseline="auto" fill="#aabcc8" fill-opacity=".49727" image-rendering="auto" mask="url(#b)" shape-rendering="auto" solid-color="#000000" stop-color="#000000" style="font-feature-settings:normal;font-variant-alternates:normal;font-variant-caps:normal;font-variant-east-asian:normal;font-variant-ligatures:normal;font-variant-numeric:normal;font-variant-position:normal;font-variation-settings:normal;inline-size:0;isolation:auto;mix-blend-mode:normal;paint-order:stroke fill markers;shape-margin:0;shape-padding:0;text-decoration-color:#000000;text-decoration-line:none;text-decoration-style:solid;text-indent:0;text-orientation:mixed;text-transform:none;white-space:normal"/>
</g>
<g>
<path d="m0 0v16h16v-16zm1 1h14v14h-14z" color="#000000" color-rendering="auto" dominant-baseline="auto" fill="#aabcc8" image-rendering="auto" shape-rendering="auto" solid-color="#000000" stop-color="#000000" style="font-feature-settings:normal;font-variant-alternates:normal;font-variant-caps:normal;font-variant-east-asian:normal;font-variant-ligatures:normal;font-variant-numeric:normal;font-variant-position:normal;font-variation-settings:normal;inline-size:0;isolation:auto;mix-blend-mode:normal;paint-order:stroke fill markers;shape-margin:0;shape-padding:0;text-decoration-color:#000000;text-decoration-line:none;text-decoration-style:solid;text-indent:0;text-orientation:mixed;text-transform:none;white-space:normal"/>
</g>
<g>
<path x="1.0327313" y="1.0327332" width="3.9345367" height="13.93453" d="m1.0327 1.0327h3.9345v13.935h-3.9345z" fill="#b2ffcd" mask="url(#a)" stroke="#51e384" stroke-width="2.0655" style="paint-order:stroke fill markers"/>
</g>
<g>
<path d="m4.75 5.5v1.75h-1.75v1.5h1.75v1.75h1.5v-1.75h1.75v-1.5h-1.75v-1.75z" fill="#00be42" style="paint-order:stroke markers fill"/>
</g>
</svg>
